X: 94
T: Missa O gloriosa domina / Gloria
N: Derived from Rue1021b-Missa_O_gloriosa_domina-Gloria.krn
C: Pierre de la Rue
%%abc-version 2.0
%%abcx-abcm2ps-target-version 5.9.1 (29 Sep 2008)
%%abc-creator hum2abc beta
%%abcx-conversion-date 2019/02/17 08:01:13
%%abc-edited-by Jesse Rodin
%%abc-edited-by Chris Gage 03-26-2013
%%abcx-initial-encoding-date 2013/07/27/
%%humdrum-veritas 1396066074
%%humdrum-veritas-data 2296574543
%%linebreak <none>
%%barnumbers 0
L: 1/4
M: 4/2
Q: 1/2=120
%%staves [1 2 3 4]
V: 1 clef=treble
V: 2 clef=treble
V: 3 clef=treble-8
V: 4 clef=bass
K: C
[V:1] d8 | 
[V:2] z8 | 
[V:3] d8 | 
[V:4] z8 | 
[V:1] A8 | 
[V:2] z8 | 
[V:3] d4A4- | 
[V:4] z8 | 
[V:1] c2d2e4 | 
[V:2] z8 | 
[V:3] A2B2c4 | 
[V:4] z8 | 
[V:1] f4z2d2 | 
[V:2] z8 | 
[V:3] d8 | 
[V:4] z8 | 
[V:1] d2c2d2cB | 
[V:2] z8 | 
[V:3] z2f2f2e2 | 
[V:4] z8 | 
[V:1] A4z2c2- | 
[V:2] z8 | 
[V:3] f2edc4 | 
[V:4] z8 | 
[V:1] c2c2B3c | 
[V:2] z8 | 
[V:3] z2e4e2 | 
[V:4] z8 | 
[V:1] d2A3Bcd | 
[V:2] z8 | 
[V:3] d3ef2c2- | 
[V:4] z8 | 
[V:1] e4e2f2- | 
[V:2] z8 | 
[V:3] cdefg2a2- | 
[V:4] z8 | 
[V:1] f2e3dd2 | 
[V:2] z4A4 | 
[V:3] agfef4 | 
[V:4] D4D2D2 | 
[V:1] e8 | 
[V:2] A2A2E4 | 
[V:3] e8 | 
[V:4] A,4z2A,2 | 
[V:1] z8 | 
[V:2] z2E2E2F2 | 
[V:3] z8 | 
[V:4] A,3B,C2D2 | 
[V:1] z8 | 
[V:2] G3EA2GF | 
[V:3] z8 | 
[V:4] E3CF2E2- | 
[V:1] z8 | 
[V:2] EDF2E4 | 
[V:3] z8 | 
[V:4] E2D4^C2 | 
[V:1] z8 | 
[V:2] z2D2D2F2- | 
[V:3] z8 | 
[V:4] D4z2A,2 | 
[V:1] z8 | 
[V:2] FEEDC2G2- | 
[V:3] z8 | 
[V:4] A,2C3B,B,A, | 
[V:1] z8 | 
[V:2] G2FED2D2 | 
[V:3] z8 | 
[V:4] G,2C4B,2 | 
[V:1] z8 | 
[V:2] C2E3FGE | 
[V:3] z8 | 
[V:4] A,2G,F,E,4 | 
[V:1] z8 | 
[V:2] F2EDCDEF | 
[V:3] z8 | 
[V:4] D,2A,3B,CA, | 
[V:1] z8 | 
[V:2] G2A4GF | 
[V:3] z8 | 
[V:4] _B,2A,G,F,G,A,=B, | 
[V:1] z8 | 
[V:2] E2A4^G2 | 
[V:3] z8 | 
[V:4] C2D2B,4 | 
[V:1] z4c4 | 
[V:2] A8- | 
[V:3] e4e2e2- | 
[V:4] A,8- | 
[V:1] c2c4c2 | 
[V:2] A8- | 
[V:3] e2f2e2f2- | 
[V:4] A,8- | 
[V:1] c2c2c2dc | 
[V:2] A8 | 
[V:3] f2ede2e2 | 
[V:4] A,8 | 
[V:1] d8 | 
[V:2] z8 | 
[V:3] d4g4 | 
[V:4] z4z2G,2- | 
[V:1] B4B2B2- | 
[V:2] z8 | 
[V:3] g2g4g2 | 
[V:4] G,2G,2G,4 | 
[V:1] B2c2B2c2- | 
[V:2] z8 | 
[V:3] g2a2g2a2- | 
[V:4] G,2F,2G,2F,2 | 
[V:1] c2BAB4 | 
[V:2] z4E4 | 
[V:3] a2^g^f^g3a | 
[V:4] A,4E,4 | 
[V:1] A8- | 
[V:2] E2E4F2 | 
[V:3] a8 | 
[V:4] A,3B,C2D2 | 
[V:1] A8 | 
[V:2] E2F3ED2 | 
[V:3] z8 | 
[V:4] C2D4CB, | 
[V:1] z8 | 
[V:2] C2F2E2F2- | 
[V:3] z8 | 
[V:4] A,3B,C2D2 | 
[V:1] z8 | 
[V:2] F2EDE4 | 
[V:3] z8 | 
[V:4] A,2D4^C2 | 
[V:1] A4A2A2- | 
[V:2] D2F4F2 | 
[V:3] z8 | 
[V:4] D8- | 
[V:1] A2B2A2B2- | 
[V:2] F2G2AGFE | 
[V:3] z8 | 
[V:4] D8 | 
[V:1] B2AGA4 | 
[V:2] D2G3^FF2 | 
[V:3] z8 | 
[V:4] z4D4 | 
[V:1] G2B4B2 | 
[V:2] G8 | 
[V:3] d4d2d2- | 
[V:4] G,2G,4G,2- | 
[V:1] B2c2dcBA | 
[V:2] z8 | 
[V:3] d2e2d2e2- | 
[V:4] G,2C2B,2G,2 | 
[V:1] G2c3BB2 | 
[V:2] z4G4 | 
[V:3] e2dcd4 | 
[V:4] C4G,4 | 
[V:1] c8 | 
[V:2] G2G4G2- | 
[V:3] c8 | 
[V:4] z2C4B,A, | 
[V:1] z8 | 
[V:2] G2A2G2A2- | 
[V:3] z8 | 
[V:4] G,2F,2C3D | 
[V:1] z8 | 
[V:2] AGF2G4 | 
[V:3] z8 | 
[V:4] E2F4E2 | 
[V:1] z2c2c2c2 | 
[V:2] F8 | 
[V:3] a4a2a2- | 
[V:4] F4F,4 | 
[V:1] c3de2f2 | 
[V:2] z8 | 
[V:3] a2a2g2a2- | 
[V:4] z8 | 
[V:1] c2f4e2 | 
[V:2] z8 | 
[V:3] a2gfg4 | 
[V:4] z4C2C2 | 
[V:1] f8 | 
[V:2] A2A3GF2 | 
[V:3] f8 | 
[V:4] D3CB,2A,2 | 
[V:1] z4e4 | 
[V:2] E2D2CB,C2 | 
[V:3] z4g2g2 | 
[V:4] G,2F,2E,4 | 
[V:1] f3ed2c2 | 
[V:2] z2D4A,2 | 
[V:3] a3gf2e2 | 
[V:4] D,8 | 
[V:1] B2A2G4 | 
[V:2] B,2C2D4 | 
[V:3] d2c2B4 | 
[V:4] G,8 | 
[V:1] F4z2F2 | 
[V:2] z2D2A,2D2- | 
[V:3] A4z2A2 | 
[V:4] D,4D,4 | 
[V:1] G2G2G3E | 
[V:2] D2CB,C2DC | 
[V:3] B2B2G3A | 
[V:4] G,3F,E,4 | 
[V:1] F4z2F2 | 
[V:2] D4z2D2 | 
[V:3] A4z2A2 | 
[V:4] D,4z2D,2 | 
[V:1] G2_B3AAG | 
[V:2] D4B,4 | 
[V:3] B2d4cB | 
[V:4] G,4G,4 | 
[V:1] F4F4 | 
[V:2] A,4z2A2 | 
[V:3] d2d2A4- | 
[V:4] D,8- | 
[V:1] z2F2F2F2 | 
[V:2] A2A2A4 | 
[V:3] A8 | 
[V:4] D,8 | 
[V:1] E2F3GAB | 
[V:2] G2A4GF | 
[V:3] z8 | 
[V:4] z2D,2D,2D,2 | 
[V:1] c2A2_B4 | 
[V:2] E2F4E2 | 
[V:3] z8 | 
[V:4] A,3F,G,4 | 
[V:1] A8- | 
[V:2] F8 | 
[V:3] c4d2d2 | 
[V:4] F,4z2D,2 | 
[V:1] A8 | 
[V:2] z4z2A2 | 
[V:3] e2f4ed | 
[V:4] C,2D,3E,F,G, | 
[V:1] z8 | 
[V:2] A2A2_B4 | 
[V:3] c2f4e2 | 
[V:4] A,2F,2G,4 | 
[V:1] z2A4A2 | 
[V:2] A4F4 | 
[V:3] f3ec4 | 
[V:4] F,4F,4 | 
[V:1] G2A3Bcd | 
[V:2] E2F2D4 | 
[V:3] z2c2f4 | 
[V:4] C,2F,3G,A,B, | 
[V:1] e2c2d4 | 
[V:2] C2E2DCD2 | 
[V:3] e2a4g2 | 
[V:4] C2A,2_B,4 | 
[V:1] c2f4f2 | 
[V:2] E2A4A2 | 
[V:3] a2A4A2 | 
[V:4] A,2F,4F,2 | 
[V:1] g2f4ed | 
[V:2] G2A4GF | 
[V:3] B2A3Bcd | 
[V:4] E,2F,3G,A,B, | 
[V:1] c2f3ed2- | 
[V:2] E2A3GG2 | 
[V:3] e2c2d4 | 
[V:4] C2A,2_B,4 | 
[V:1] d2^cBc4 | 
[V:2] A8 | 
[V:3] e8 | 
[V:4] A,8 | 
[V:1] d2A2_B2A2- | 
[V:2] z2F2G2F2 | 
[V:3] d8 | 
[V:4] z2D,2G,2D,2 | 
[V:1] A2G4FE | 
[V:2] _B6AG | 
[V:3] d4z2d2 | 
[V:4] G,8 | 
[V:1] F8- | 
[V:2] A4D4 | 
[V:3] d2A2_B4 | 
[V:4] D,8- | 
[V:1] F8 ||  
[V:2] D8 & A8 ||  
[V:3] A8 ||  
[V:4] D,8 ||  
[V:1]  [K:C] [K:clef=treble][M:2/1]z8 | 
[V:2]  [K:C] [K:clef=treble][M:2/1]z8 | 
[V:3]  [K:C] [K:clef=treble-8][M:2/1]z4f4 | 
[V:4]  [K:C] [K:clef=bass][M:2/1]D4D4- | 
[V:1] z8 | 
[V:2] z8 | 
[V:3] f6ed | 
[V:4] D2CB,A,4 | 
[V:1] z8 | 
[V:2] z8 | 
[V:3] c8 | 
[V:4] z2A,2A,2A,2- | 
[V:1] z8 | 
[V:2] z8 | 
[V:3] z2e2e2e2- | 
[V:4] A,2C3B,A,G, | 
[V:1] z8 | 
[V:2] z8 | 
[V:3] e2g3fed | 
[V:4] A,2G,F,E,4 | 
[V:1] z8 | 
[V:2] z8 | 
[V:3] fedcB4 | 
[V:4] A,4G,4 | 
[V:1] z8 | 
[V:2] z8 | 
[V:3] A8 | 
[V:4] z2A,2A,2C2- | 
[V:1] z8 | 
[V:2] z8 | 
[V:3] z4a4 | 
[V:4] CB,A,G,A,G,F,E, | 
[V:1] z8 | 
[V:2] z8 | 
[V:3] a4g3e | 
[V:4] F,4E,2E2- | 
[V:1] z8 | 
[V:2] z8 | 
[V:3] f4e2a2- | 
[V:4] E2D2C2A,2 | 
[V:1] z8 | 
[V:2] z8 | 
[V:3] agf2efge | 
[V:4] B,CDB,C3B, | 
[V:1] z8 | 
[V:2] z4A4 | 
[V:3] f2e4d2 | 
[V:4] A,2G,2F,4 | 
[V:1] z8 | 
[V:2] G2G4FE | 
[V:3] e6dc | 
[V:4] E,8- | 
[V:1] z8 | 
[V:2] G2G3ABc | 
[V:3] B2c2B2e2- | 
[V:4] E,8 | 
[V:1] z4d4 | 
[V:2] B2A4^G2 | 
[V:3] edc2B4 | 
[V:4] z8 | 
[V:1] c4c2BA | 
[V:2] A6GF | 
[V:3] A8- | 
[V:4] z8 | 
[V:1] c2c3def | 
[V:2] E2F2E2A2- | 
[V:3] A8- | 
[V:4] z8 | 
[V:1] e2d4^c2 | 
[V:2] AGF2E4 | 
[V:3] A8 | 
[V:4] z8 | 
[V:1] d4z2d2 | 
[V:2] D8 | 
[V:3] z8 | 
[V:4] z8 | 
[V:1] f4f2f2- | 
[V:2] z2D2A4 | 
[V:3] z8 | 
[V:4] z8 | 
[V:1] f2edf2f2 | 
[V:2] A2A4GF | 
[V:3] z8 | 
[V:4] z8 | 
[V:1] c2A2c3d | 
[V:2] A2GFE3F | 
[V:3] z8 | 
[V:4] z8 | 
[V:1] e2f3edc | 
[V:2] G2A3GFE | 
[V:3] z8 | 
[V:4] z8 | 
[V:1] d4e4- | 
[V:2] F3EC2A,2 | 
[V:3] z8 | 
[V:4] z8 | 
[V:1] e2dcB2A2- | 
[V:2] C3DE2F2- | 
[V:3] z8 | 
[V:4] z8 | 
[V:1] AGFEF4 | 
[V:2] FEDCD4 | 
[V:3] a6a2 | 
[V:4] z8 | 
[V:1] E4z2e2- | 
[V:2] E8 | 
[V:3] g8 | 
[V:4] E,8- | 
[V:1] e2e2e2dc | 
[V:2] z2E4E2 | 
[V:3] g4g4 | 
[V:4] E,4E,4 | 
[V:1] B8 | 
[V:2] E2DCB,2E2 | 
[V:3] g4g4 | 
[V:4] E,4z2E,2 | 
[V:1] z2B2B2d2- | 
[V:2] E2E2G4 | 
[V:3] g2fed3e | 
[V:4] E,2G,4F,E, | 
[V:1] d2cBA3B | 
[V:2] A8 | 
[V:3] f2e4d2 | 
[V:4] D,2E,2F,4 | 
[V:1] cde3dc2 | 
[V:2] G4G2E2- | 
[V:3] e8- | 
[V:4] E,3F,G,2A,2 | 
[V:1] B2A2c2BA | 
[V:2] EDCB,A,2E2- | 
[V:3] e8- | 
[V:4] E,2A,4G,F, | 
[V:1] B2A4^G2 | 
[V:2] EDC2B,4 | 
[V:3] e8 | 
[V:4] G,2A,2E,4 | 
[V:1] A8 | 
[V:2] A,8 | 
[V:3] z4e4 | 
[V:4] A,8 | 
[V:1] z8 | 
[V:2] z8 | 
[V:3] e3gf4 | 
[V:4] z4A,4 | 
[V:1] z8 | 
[V:2] z8 | 
[V:3] e4z2g2 | 
[V:4] A,3CB,4 | 
[V:1] z8 | 
[V:2] z8 | 
[V:3] f2e2g2fe | 
[V:4] A,4z2C2 | 
[V:1] z8 | 
[V:2] z8 | 
[V:3] d2c3def | 
[V:4] B,2A,2C2B,A, | 
[V:1] z8 | 
[V:2] z8 | 
[V:3] g2a4f2 | 
[V:4] G,2F,3G,A,B, | 
[V:1] z8 | 
[V:2] z8 | 
[V:3] gfede4 | 
[V:4] C2D4^C2 | 
[V:1] A8 | 
[V:2] F8 | 
[V:3] d8- | 
[V:4] D4z2D,2 | 
[V:1] A4A4 | 
[V:2] F4F2F2- | 
[V:3] d8 | 
[V:4] D,2D,3E,F,G, | 
[V:1] A8 | 
[V:2] F2EDE4 | 
[V:3] z2d2d2c2 | 
[V:4] A,2D,2A,4 | 
[V:1] z2d2d2d2- | 
[V:2] D4z2D2 | 
[V:3] d3cA2f2- | 
[V:4] D,8 | 
[V:1] d2cBA4 | 
[V:2] D2D3EFG | 
[V:3] f2f2f2f2- | 
[V:4] z2D2D2D2- | 
[V:1] A4A4 | 
[V:2] A2G4^F2 | 
[V:3] f2edc2dc | 
[V:4] D2CB,A,2A,2 | 
[V:1] B4z2B2 | 
[V:2] G4z2G2 | 
[V:3] d8 | 
[V:4] G,8 | 
[V:1] B2B3cd2 | 
[V:2] G2G3AB2- | 
[V:3] z4z2d2- | 
[V:4] z2G,2G,2G,2- | 
[V:1] G4B4 | 
[V:2] B2G4G2- | 
[V:3] d2d2e4 | 
[V:4] G,A,B,2E,3F, | 
[V:1] B2d3cBA | 
[V:2] G2FED4 | 
[V:3] d4B3c | 
[V:4] G,8 | 
[V:1] B2cBc4- | 
[V:2] G4E4 | 
[V:3] d2e4c2 | 
[V:4] G,4A,2A,2- | 
[V:1] c2A2A4 | 
[V:2] A6F2 | 
[V:3] c8 | 
[V:4] A,2F,2F,4- | 
[V:1] z2A3Bc2 | 
[V:2] F4z2F2 | 
[V:3] z2c2c4 | 
[V:4] F,4z2F,2- | 
[V:1] A2c4A2- | 
[V:2] F3GA2F2- | 
[V:3] c2A3BcA | 
[V:4] F,G,A,2F,4 | 
[V:1] ABcAB4- | 
[V:2] FGAFG2G2- | 
[V:3] c4d2e2- | 
[V:4] A,4G,2E,2 | 
[V:1] B2G2G4 | 
[V:2] G2E2E4 | 
[V:3] e2B2B4- | 
[V:4] E,4E,4- | 
[V:1] z2G4G2 | 
[V:2] z2E4E2 | 
[V:3] B4z2B2- | 
[V:4] E,2E,2E,4 | 
[V:1] G2G3ABG | 
[V:2] E2E3FGE | 
[V:3] B2B2B4 | 
[V:4] G,8 | 
[V:1] A4A2F2- | 
[V:2] F2F4D2- | 
[V:3] A8 | 
[V:4] F,2D,2D,4 | 
[V:1] F2D2D2d2- | 
[V:2] D2CB,A,4 | 
[V:3] a4a2f2- | 
[V:4] z4D,4- | 
[V:1] d2f4ed | 
[V:2] z4A4- | 
[V:3] f2d2d4 | 
[V:4] D,4D,4 | 
[V:1] c4f2e2- | 
[V:2] A4D2E2 | 
[V:3] e4f2g2- | 
[V:4] A,4D2C2 | 
[V:1] e2d4^c2 | 
[V:2] F3GA2A2- | 
[V:3] gfd2e4 | 
[V:4] D4A,4 | 
[V:1] d8 | 
[V:2] AGFEF4 | 
[V:3] d8 | 
[V:4] D,8 | 
[V:1] [M:3/1]z12 | 
[V:2] [M:3/1]z12 | 
[V:3] [M:3/1]e4f4d4 | 
[V:4] [M:3/1]A,8B,4 | 
[V:1] z12 | 
[V:2] z12 | 
[V:3] e4f4d4 | 
[V:4] G,4A,4B,4 | 
[V:1] z4z4e4- | 
[V:2] z12 | 
[V:3] e6d2c2B2 | 
[V:4] G,4A,6G,2 | 
[V:1] e4f4d4 | 
[V:2] A8B4 | 
[V:3] A8z4 | 
[V:4] F,2E,2D,4z4 | 
[V:1] e4f4d4 | 
[V:2] G4A4B4 | 
[V:3] z12 | 
[V:4] z12 | 
[V:1] e6d2c2B2 | 
[V:2] G4A6G2 | 
[V:3] z4z4e4 | 
[V:4] z12 | 
[V:1] A12 | 
[V:2] F2E2D4z4 | 
[V:3] f6f2f4 | 
[V:4] z4z4A,4 | 
[V:1] z12 | 
[V:2] z12 | 
[V:3] d4e4f4 | 
[V:4] B,4G,4A,4 | 
[V:1] z12 | 
[V:2] z12 | 
[V:3] d4e6d2 | 
[V:4] B,4G,4A,4- | 
[V:1] z12 | 
[V:2] z12 | 
[V:3] c2B2A8 | 
[V:4] A,2G,2F,2E,2D,4- | 
[V:1] z4z4e4 | 
[V:2] z12 | 
[V:3] d6^c2^c4 | 
[V:4] D,2F,2E,8 | 
[V:1] f4d4e4 | 
[V:2] A4B4G4 | 
[V:3] d4z4z4 | 
[V:4] D,4z4z4 | 
[V:1] f4d4e4- | 
[V:2] A4B4G4 | 
[V:3] z12 | 
[V:4] z12 | 
[V:1] e2d2c2B2A4 | 
[V:2] A6G2F2E2 | 
[V:3] z12 | 
[V:4] z12 | 
[V:1] d6^c2c4 | 
[V:2] D4E8 | 
[V:3] z4z4e4 | 
[V:4] z12 | 
[V:1] d4c4d4 | 
[V:2] D4A4G4 | 
[V:3] f6f2d4 | 
[V:4] z4A,4B,4 | 
[V:1] B4A4d4 | 
[V:2] G4F4F4 | 
[V:3] e4f4d4 | 
[V:4] G,4A,4B,4 | 
[V:1] B4c4B2A2 | 
[V:2] G4E2F2G2A2 | 
[V:3] e4c4d4- | 
[V:4] G,4A,4G,2F,2 | 
[V:1] d6^c=Bc4 | 
[V:2] G4A8 | 
[V:3] d4e8 | 
[V:4] _B,4A,8 | 
[V:1] d12- | 
[V:2] F6G2A2_B2 | 
[V:3] d12- | 
[V:4] z4D,8 | 
[V:1] d12 |]  
[V:2] A12 |]  
[V:3] d12 |]  
[V:4] D,12 |]  



